X: 21591
T: "OH, IF JOCKY WOULD BUT STEAL ME" -- Reel
R: reel
B: K\"ohler's Violin Repository, v.2, 1885 p.159 #1
F: http://www.archive.org/details/klersviolinrepos02rugg
Z: 2012 John Chambers <jc:trillian.mit.edu>
N: The "segno" symbols are used oddly.
M: C|
L: 1/8
K: G
uc !segno!|\
(B/c/d) (de) gdec | (B/c/d) (de) =fcAc | (B/c/d) (de) gage | =fgfc AFAc !segno!:|
[| B>G G/G/G (GB)Ac | B>G G/G/G (c=F)Ac | B>G G/G/G (de)dB | (cd)cB (A=F)Ac |
   B>G G/G/G (GB)Ac | B>G G/G/G (c=F)Ac | BGBc dgdB | c=fcB AF"_Fine."Ac !segno!"_D.C."|]

%%sep 2 1 500

